;FLAVOR:UltiGCode
;TIME:22077
;MATERIAL:25712
;MATERIAL2:0
;NOZZLE_DIAMETER:0.4

;Generated with Cura_SteamEngine 2.1.3
;LAYER_COUNT:398
;LAYER:0
M107
G10
G0 F7200.000000 X76.051 Y75.817 Z0.270
;TYPE:SKIRT
G11
G1 F1200.000 X76.650 Y75.297 E0.07496
G1 X77.299 Y74.841 E0.14992
G1 X77.991 Y74.452 E0.22493
G1 X78.718 Y74.134 E0.29992
G1 X79.474 Y73.891 E0.37496
G1 X80.250 Y73.726 E0.44993
G1 X81.038 Y73.640 E0.52484
G1 X81.501 Y73.626 E0.56861
G1 X141.499 Y73.626 E6.23843
G1 X142.291 Y73.666 E6.31336
G1 X143.076 Y73.785 E6.38839
G1 X143.844 Y73.983 E6.46334
G1 X144.589 Y74.258 E6.53839
G1 X145.302 Y74.605 E6.61332
G1 X145.977 Y75.023 E6.68835
G1 X146.606 Y75.506 E6.76330
G1 X147.183 Y76.051 E6.83830
G1 X147.703 Y76.650 E6.91326
G1 X148.159 Y77.299 E6.98821
G1 X148.548 Y77.991 E7.06323
G1 X148.866 Y78.718 E7.13822
G1 X149.109 Y79.474 E7.21326
G1 X149.274 Y80.250 E7.28823
G1 X149.360 Y81.038 E7.36314
G1 X149.374 Y81.501 E7.40691
G1 X149.374 Y141.499 E13.07673
G1 X149.334 Y142.291 E13.15166
G1 X149.215 Y143.076 E13.22669
G1 X149.017 Y143.844 E13.30164
G1 X148.742 Y144.589 E13.37669
G1 X148.395 Y145.302 E13.45162
G1 X147.977 Y145.977 E13.52665
G1 X147.494 Y146.606 E13.60159
G1 X146.949 Y147.183 E13.67660
G1 X146.350 Y147.703 E13.75156
G1 X145.701 Y148.159 E13.82651
G1 X145.009 Y148.548 E13.90153
G1 X144.282 Y148.866 E13.97652
G1 X143.526 Y149.109 E14.05156
G1 X142.750 Y149.274 E14.12653
G1 X141.962 Y149.360 E14.20144
G1 X141.499 Y149.374 E14.24521
G1 X81.501 Y149.374 E19.91502
G1 X80.709 Y149.334 E19.98996
G1 X79.924 Y149.215 E20.06499
G1 X79.156 Y149.017 E20.13994
G1 X78.411 Y148.742 E20.21499
G1 X77.698 Y148.395 E20.28992
G1 X77.023 Y147.977 E20.36495
G1 X76.394 Y147.494 E20.43989
G1 X75.817 Y146.949 E20.51490
G1 X75.297 Y146.350 E20.58986
G1 X74.841 Y145.701 E20.66481
G1 X74.452 Y145.009 E20.73983
G1 X74.134 Y144.282 E20.81482
G1 X73.891 Y143.526 E20.88986
G1 X73.726 Y142.750 E20.96483
G1 X73.640 Y141.962 E21.03974
G1 X73.626 Y141.499 E21.08351
G1 X73.626 Y81.501 E26.75332
G1 X73.666 Y80.709 E26.82826
G1 X73.785 Y79.924 E26.90329
G1 X73.983 Y79.156 E26.97824
G1 X74.258 Y78.411 E27.05329
G1 X74.605 Y77.698 E27.12822
G1 X75.023 Y77.023 E27.20325
G1 X75.506 Y76.394 E27.27819
G1 X76.051 Y75.817 E27.35320
G0 F7200.00000 X76.395 Y75.974
G1 F1200.000 X76.991 Y75.477 E27.42653
G1 X77.635 Y75.045 E27.49982
G1 X78.320 Y74.682 E27.57308
G1 X79.039 Y74.390 E27.64641
G1 X79.784 Y74.175 E27.71969
G1 X80.547 Y74.037 E27.79296
G1 X81.501 Y73.976 E27.88330
G1 X141.499 Y73.976 E33.55311
G1 X142.274 Y74.016 E33.62644
G1 X143.040 Y74.135 E33.69970
G1 X143.790 Y74.333 E33.77300
G1 X144.516 Y74.607 E33.84633
G1 X145.209 Y74.954 E33.91957
G1 X145.863 Y75.371 E33.99287
G1 X146.471 Y75.853 E34.06619
G1 X147.026 Y76.395 E34.13950
G1 X147.523 Y76.991 E34.21283
G1 X147.955 Y77.635 E34.28611
G1 X148.318 Y78.320 E34.35937
G1 X148.610 Y79.039 E34.43271
G1 X148.825 Y79.784 E34.50599
G1 X148.963 Y80.547 E34.57926
G1 X149.024 Y81.501 E34.66960
G1 X149.024 Y141.499 E40.33941
G1 X148.984 Y142.274 E40.41274
G1 X148.865 Y143.040 E40.48600
G1 X148.667 Y143.790 E40.55930
G1 X148.393 Y144.516 E40.63263
G1 X148.046 Y145.209 E40.70587
G1 X147.629 Y145.863 E40.77917
G1 X147.147 Y146.471 E40.85249
G1 X146.605 Y147.026 E40.92580
G1 X146.009 Y147.523 E40.99913
G1 X145.365 Y147.955 E41.07241
G1 X144.680 Y148.318 E41.14567
G1 X143.961 Y148.610 E41.21901
G1 X143.216 Y148.825 E41.29228
G1 X142.453 Y148.963 E41.36556
G1 X141.499 Y149.024 E41.45589
G1 X81.501 Y149.024 E47.12571
G1 X80.726 Y148.984 E47.19904
G1 X79.960 Y148.865 E47.27230
G1 X79.210 Y148.667 E47.34560
G1 X78.484 Y148.393 E47.41893
G1 X77.791 Y148.046 E47.49217
G1 X77.137 Y147.629 E47.56547
G1 X76.529 Y147.147 E47.63879
G1 X75.974 Y146.605 E47.71210
G1 X75.477 Y146.009 E47.78543
G1 X75.045 Y145.365 E47.85871
G1 X74.682 Y144.680 E47.93197
G1 X74.390 Y143.961 E48.00531
G1 X74.175 Y143.216 E48.07858
G1 X74.037 Y142.453 E48.15186
G1 X73.976 Y141.499 E48.24219
G1 X73.976 Y81.501 E53.91200
G1 X74.016 Y80.726 E53.98534
G1 X74.135 Y79.960 E54.05860
G1 X74.333 Y79.210 E54.13190
G1 X74.607 Y78.484 E54.20523
G1 X74.954 Y77.791 E54.27847
G1 X75.371 Y77.137 E54.35177
G1 X75.853 Y76.529 E54.42509
G1 X76.395 Y75.974 E54.49839
G0 F7200.00000 X76.738 Y76.135
G1 F1200.000 X77.330 Y75.663 E54.56994
G1 X77.969 Y75.256 E54.64154
G1 X78.647 Y74.918 E54.71313
G1 X79.356 Y74.654 E54.78462
G1 X80.090 Y74.466 E54.85623
G1 X80.839 Y74.357 E54.92775
G1 X81.501 Y74.326 E54.99038
G1 X141.499 Y74.326 E60.66019
G1 X142.255 Y74.366 E60.73173
G1 X143.003 Y74.485 E60.80331
G1 X143.734 Y74.683 E60.87488
G1 X144.441 Y74.957 E60.94653
G1 X145.114 Y75.303 E61.01804
G1 X145.747 Y75.719 E61.08962
G1 X146.333 Y76.199 E61.16120
G1 X146.865 Y76.738 E61.23277
G1 X147.337 Y77.330 E61.30432
G1 X147.744 Y77.969 E61.37591
G1 X148.082 Y78.647 E61.44751
G1 X148.346 Y79.356 E61.51900
G1 X148.534 Y80.090 E61.59060
G1 X148.643 Y80.839 E61.66213
G1 X148.674 Y81.501 E61.72476
G1 X148.674 Y141.499 E67.39457
G1 X148.634 Y142.255 E67.46611
G1 X148.515 Y143.003 E67.53768
G1 X148.317 Y143.734 E67.60925
G1 X148.043 Y144.441 E67.68091
G1 X147.697 Y145.114 E67.75242
G1 X147.281 Y145.747 E67.82400
G1 X146.801 Y146.333 E67.89558
G1 X146.262 Y146.865 E67.96715
G1 X145.670 Y147.337 E68.03870
G1 X145.031 Y147.744 E68.11029
G1 X144.353 Y148.082 E68.18188
G1 X143.644 Y148.346 E68.25338
G1 X142.910 Y148.534 E68.32498
G1 X142.161 Y148.643 E68.39650
G1 X141.499 Y148.674 E68.45913
G1 X81.501 Y148.674 E74.12894
G1 X80.745 Y148.634 E74.20048
G1 X79.997 Y148.515 E74.27206
G1 X79.266 Y148.317 E74.34363
G1 X78.559 Y148.043 E74.41528
G1 X77.886 Y147.697 E74.48679
G1 X77.253 Y147.281 E74.55837
G1 X76.667 Y146.801 E74.62996
G1 X76.135 Y146.262 E74.70152
G1 X75.663 Y145.670 E74.77307
G1 X75.256 Y145.031 E74.84467
G1 X74.918 Y144.353 E74.91626
G1 X74.654 Y143.644 E74.98775
G1 X74.466 Y142.910 E75.05935
G1 X74.357 Y142.161 E75.13088
G1 X74.326 Y141.499 E75.19351
G1 X74.326 Y81.501 E80.86332
G1 X74.366 Y80.745 E80.93486
G1 X74.485 Y79.997 E81.00644
G1 X74.683 Y79.266 E81.07800
G1 X74.957 Y78.559 E81.14966
G1 X75.303 Y77.886 E81.22117
G1 X75.719 Y77.253 E81.29275
G1 X76.199 Y76.667 E81.36433
G1 X76.738 Y76.135 E81.43590
G0 F7200.00000 X77.080 Y76.301
G1 F1200.000 X77.668 Y75.854 E81.50570
G1 X78.301 Y75.473 E81.57552
G1 X78.971 Y75.162 E81.64532
G1 X79.671 Y74.926 E81.71513
G1 X80.392 Y74.767 E81.78490
G1 X81.127 Y74.686 E81.85478
G1 X81.501 Y74.676 E81.89013
G1 X141.499 Y74.676 E87.55995
G1 X142.237 Y74.716 E87.62979
G1 X142.965 Y74.835 E87.69950
G1 X143.677 Y75.033 E87.76933
G1 X144.363 Y75.306 E87.83911
G1 X145.016 Y75.652 E87.90894
G1 X145.628 Y76.066 E87.97877
G1 X146.191 Y76.544 E88.04856
G1 X146.699 Y77.080 E88.11835
G1 X147.146 Y77.668 E88.18815
G1 X147.527 Y78.301 E88.25796
G1 X147.838 Y78.971 E88.32777
G1 X148.074 Y79.671 E88.39758
G1 X148.233 Y80.392 E88.46735
G1 X148.314 Y81.127 E88.53722
G1 X148.324 Y81.501 E88.57258
G1 X148.324 Y141.499 E94.24239
G1 X148.284 Y142.237 E94.31223
G1 X148.165 Y142.965 E94.38194
G1 X147.967 Y143.677 E94.45178
G1 X147.694 Y144.363 E94.52155
G1 X147.348 Y145.016 E94.59139
G1 X146.934 Y145.628 E94.66121
G1 X146.456 Y146.191 E94.73101
G1 X145.920 Y146.699 E94.80079
G1 X145.332 Y147.146 E94.87059
G1 X144.699 Y147.527 E94.94041
G1 X144.029 Y147.838 E95.01021
G1 X143.329 Y148.074 E95.08002
G1 X142.608 Y148.233 E95.14979
G1 X141.873 Y148.314 E95.21967
G1 X141.499 Y148.324 E95.25503
G1 X81.501 Y148.324 E100.92484
G1 X80.763 Y148.284 E100.99468
G1 X80.035 Y148.165 E101.06439
G1 X79.323 Y147.967 E101.13423
G1 X78.637 Y147.694 E101.20400
G1 X77.984 Y147.348 E101.27383
G1 X77.372 Y146.934 E101.34366
G1 X76.809 Y146.456 E101.41345
G1 X76.301 Y145.920 E101.48324
G1 X75.854 Y145.332 E101.55304
G1 X75.473 Y144.699 E101.62286
G1 X75.162 Y144.029 E101.69266
G1 X74.926 Y143.329 E101.76247
G1 X74.767 Y142.608 E101.83224
G1 X74.686 Y141.873 E101.90212
G1 X74.676 Y141.499 E101.93747
G1 X74.676 Y81.501 E107.60728
G1 X74.716 Y80.763 E107.67713
G1 X74.835 Y80.035 E107.74684
G1 X75.033 Y79.323 E107.81667
G1 X75.306 Y78.637 E107.88645
G1 X75.652 Y77.984 E107.95628
G1 X76.066 Y77.372 E108.02610
G1 X76.544 Y76.809 E108.09590
G1 X77.080 Y76.301 E108.16568
G0 F7200.00000 X77.422 Y76.472
G1 F1200.000 X78.005 Y76.051 E108.23364
G1 X78.632 Y75.697 E108.30168
G1 X79.293 Y75.414 E108.36963
G1 X79.982 Y75.207 E108.43762
G1 X80.690 Y75.077 E108.50564
G1 X81.501 Y75.026 E108.58243
G1 X141.499 Y75.026 E114.25224
G1 X142.217 Y75.066 E114.32020
G1 X142.927 Y75.185 E114.38823
G1 X143.619 Y75.383 E114.45625
G1 X144.284 Y75.656 E114.52418
G1 X144.916 Y76.001 E114.59222
G1 X145.505 Y76.414 E114.66021
G1 X146.044 Y76.890 E114.72816
G1 X146.528 Y77.422 E114.79613
G1 X146.949 Y78.005 E114.86408
G1 X147.303 Y78.632 E114.93213
G1 X147.586 Y79.293 E115.00007
G1 X147.793 Y79.982 E115.06806
G1 X147.923 Y80.690 E115.13608
G1 X147.974 Y81.501 E115.21288
G1 X147.974 Y141.499 E120.88269
G1 X147.934 Y142.217 E120.95064
G1 X147.815 Y142.927 E121.01867
G1 X147.617 Y143.619 E121.08669
G1 X147.344 Y144.284 E121.15462
G1 X146.999 Y144.916 E121.22267
G1 X146.586 Y145.505 E121.29065
G1 X146.110 Y146.044 E121.35860
G1 X145.578 Y146.528 E121.42657
G1 X144.995 Y146.949 E121.49452
G1 X144.368 Y147.303 E121.56257
G1 X143.707 Y147.586 E121.63052
G1 X143.018 Y147.793 E121.69850
G1 X142.310 Y147.923 E121.76653
G1 X141.499 Y147.974 E121.84332
G1 X81.501 Y147.974 E127.51313
G1 X80.783 Y147.934 E127.58108
G1 X80.073 Y147.815 E127.64912
G1 X79.381 Y147.617 E127.71713
G1 X78.716 Y147.344 E127.78507
G1 X78.084 Y146.999 E127.85311
G1 X77.495 Y146.586 E127.92109
G1 X76.956 Y146.110 E127.98904
G1 X76.472 Y145.578 E128.05701
G1 X76.051 Y144.995 E128.12497
G1 X75.697 Y144.368 E128.19301
G1 X75.414 Y143.707 E128.26096
G1 X75.207 Y143.018 E128.32894
G1 X75.077 Y142.310 E128.39697
G1 X75.026 Y141.499 E128.47376
G1 X75.026 Y81.501 E134.14357
G1 X75.066 Y80.783 E134.21153
G1 X75.185 Y80.073 E134.27956
G1 X75.383 Y79.381 E134.34758
G1 X75.656 Y78.716 E134.41551
G1 X76.001 Y78.084 E134.48355
G1 X76.414 Y77.495 E134.55153
G1 X76.890 Y76.956 E134.61948
G1 X77.422 Y76.472 E134.68745
G0 F7200.00000 X77.763 Y76.649
G1 F1200.000 X78.341 Y76.254 E134.75361
G1 X78.960 Y75.928 E134.81972
G1 X79.612 Y75.674 E134.88584
G1 X80.289 Y75.497 E134.95197
G1 X80.982 Y75.398 E135.01813
G1 X81.501 Y75.376 E135.06721
G1 X141.499 Y75.376 E140.73703
G1 X142.198 Y75.416 E140.80319
G1 X142.887 Y75.535 E140.86926
G1 X143.558 Y75.733 E140.93538
G1 X144.203 Y76.005 E141.00153
G1 X144.812 Y76.349 E141.06762
G1 X145.378 Y76.761 E141.13378
G1 X145.893 Y77.234 E141.19986
G1 X146.351 Y77.763 E141.26598
G1 X146.746 Y78.341 E141.33214
G1 X147.072 Y78.960 E141.39825
G1 X147.326 Y79.612 E141.46438
G1 X147.503 Y80.289 E141.53050
G1 X147.602 Y80.982 E141.59666
G1 X147.624 Y81.501 E141.64575
G1 X147.624 Y141.499 E147.31556
G1 X147.584 Y142.198 E147.38172
G1 X147.465 Y142.887 E147.44780
G1 X147.267 Y143.558 E147.51391
G1 X146.995 Y144.203 E147.58006
G1 X146.651 Y144.812 E147.64616
G1 X146.239 Y145.378 E147.71231
G1 X145.766 Y145.893 E147.77839
G1 X145.237 Y146.351 E147.84452
G1 X144.659 Y146.746 E147.91067
G1 X144.040 Y147.072 E147.97679
G1 X143.388 Y147.326 E148.04291
G1 X142.711 Y147.503 E148.10904
G1 X142.018 Y147.602 E148.17519
G1 X141.499 Y147.624 E148.22428
G1 X81.501 Y147.624 E153.89409
G1 X80.802 Y147.584 E153.96025
G1 X80.113 Y147.465 E154.02633
G1 X79.442 Y147.267 E154.09244
G1 X78.797 Y146.995 E154.15859
G1 X78.188 Y146.651 E154.22469
G1 X77.622 Y146.239 E154.29085
G1 X77.107 Y145.766 E154.35692
G1 X76.649 Y145.237 E154.42305
G1 X76.254 Y144.659 E154.48921
G1 X75.928 Y144.040 E154.55532
G1 X75.674 Y143.388 E154.62144
G1 X75.497 Y142.711 E154.68757
G1 X75.398 Y142.018 E154.75372
G1 X75.376 Y141.499 E154.80281
G1 X75.376 Y81.501 E160.47262
G1 X75.416 Y80.802 E160.53879
G1 X75.535 Y80.113 E160.60486
G1 X75.733 Y79.442 E160.67097
G1 X76.005 Y78.797 E160.73712
G1 X76.349 Y78.188 E160.80322
G1 X76.761 Y77.622 E160.86938
G1 X77.234 Y77.107 E160.93546
G1 X77.763 Y76.649 E161.00158
G0 F7200.00000 X78.103 Y76.832
G1 F1200.000 X78.675 Y76.465 E161.06580
G1 X79.286 Y76.168 E161.13000
G1 X79.928 Y75.944 E161.19426
G1 X80.591 Y75.798 E161.25841
G1 X81.501 Y75.726 E161.34468
G1 X141.499 Y75.726 E167.01449
G1 X142.177 Y75.766 E167.07867
G1 X142.846 Y75.885 E167.14288
G1 X143.496 Y76.082 E167.20707
G1 X144.119 Y76.354 E167.27131
G1 X144.705 Y76.698 E167.33552
G1 X145.247 Y77.108 E167.39974
G1 X145.737 Y77.578 E167.46391
G1 X146.168 Y78.103 E167.52810
G1 X146.535 Y78.675 E167.59232
G1 X146.832 Y79.286 E167.65652
G1 X147.056 Y79.928 E167.72078
G1 X147.202 Y80.591 E167.78493
G1 X147.274 Y81.501 E167.87119
G1 X147.274 Y141.499 E173.54100
G1 X147.234 Y142.177 E173.60519
G1 X147.115 Y142.846 E173.66940
G1 X146.918 Y143.496 E173.73358
G1 X146.646 Y144.119 E173.79782
G1 X146.302 Y144.705 E173.86204
G1 X145.892 Y145.247 E173.92626
G1 X145.422 Y145.737 E173.99042
G1 X144.897 Y146.168 E174.05461
G1 X144.325 Y146.535 E174.11884
G1 X143.714 Y146.832 E174.18304
G1 X143.072 Y147.056 E174.24729
G1 X142.409 Y147.202 E174.31145
G1 X141.499 Y147.274 E174.39771
G1 X81.501 Y147.274 E180.06752
G1 X80.823 Y147.234 E180.13170
G1 X80.154 Y147.115 E180.19592
G1 X79.504 Y146.918 E180.26010
G1 X78.881 Y146.646 E180.32434
G1 X78.295 Y146.302 E180.38855
G1 X77.753 Y145.892 E180.45278
G1 X77.263 Y145.422 E180.51694
G1 X76.832 Y144.897 E180.58113
G1 X76.465 Y144.325 E180.64535
G1 X76.168 Y143.714 E180.70955
G1 X75.944 Y143.072 E180.77381
G1 X75.798 Y142.409 E180.83796
G1 X75.726 Y141.499 E180.92423
G1 X75.726 Y81.501 E186.59404
G1 X75.766 Y80.823 E186.65822
G1 X75.885 Y80.154 E186.72243
G1 X76.082 Y79.504 E186.78662
G1 X76.354 Y78.881 E186.85086
G1 X76.698 Y78.295 E186.91507
G1 X77.108 Y77.753 E186.97929
G1 X77.578 Y77.263 E187.04346
G1 X78.103 Y76.832 E187.10764
G0 F7200.00000 X78.442 Y77.021
G1 F1200.000 X79.007 Y76.683 E187.16986
G1 X79.609 Y76.417 E187.23206
G1 X80.239 Y76.225 E187.29430
G1 X80.887 Y76.111 E187.35647
G1 X81.501 Y76.076 E187.41459
G1 X141.499 Y76.076 E193.08440
G1 X142.156 Y76.116 E193.14660
G1 X142.804 Y76.235 E193.20886
G1 X143.432 Y76.432 E193.27106
G1 X144.032 Y76.704 E193.33331
G1 X144.595 Y77.046 E193.39556
G1 X145.112 Y77.454 E193.45780
G1 X145.575 Y77.921 E193.51995
G1 X145.979 Y78.442 E193.58225
G1 X146.317 Y79.007 E193.64447
G1 X146.583 Y79.609 E193.70666
G1 X146.775 Y80.239 E193.76890
G1 X146.889 Y80.887 E193.83108
G1 X146.924 Y81.501 E193.88919
G1 X146.924 Y141.499 E199.55900
G1 X146.884 Y142.156 E199.62121
G1 X146.765 Y142.804 E199.68347
G1 X146.568 Y143.432 E199.74566
G1 X146.296 Y144.032 E199.80792
G1 X145.954 Y144.595 E199.87017
G1 X145.546 Y145.112 E199.93241
G1 X145.079 Y145.575 E199.99455
G1 X144.558 Y145.979 E200.05685
G1 X143.993 Y146.317 E200.11907
G1 X143.391 Y146.583 E200.18126
G1 X142.761 Y146.775 E200.24350
G1 X142.113 Y146.889 E200.30568
G1 X141.499 Y146.924 E200.36380
G1 X81.501 Y146.924 E206.03361
G1 X80.844 Y146.884 E206.09581
G1 X80.196 Y146.765 E206.15807
G1 X79.568 Y146.568 E206.22027
G1 X78.968 Y146.296 E206.28252
G1 X78.405 Y145.954 E206.34477
G1 X77.888 Y145.546 E206.40701
G1 X77.425 Y145.079 E206.46915
G1 X77.021 Y144.558 E206.53146
G1 X76.683 Y143.993 E206.59367
G1 X76.417 Y143.391 E206.65587
G1 X76.225 Y142.761 E206.71811
G1 X76.111 Y142.113 E206.78028
G1 X76.076 Y141.499 E206.83840
G1 X76.076 Y81.501 E212.50821
G1 X76.116 Y80.844 E212.57041
G1 X76.235 Y80.196 E212.63267
G1 X76.432 Y79.568 E212.69487
G1 X76.704 Y78.968 E212.75712
G1 X77.046 Y78.405 E212.81937
G1 X77.454 Y77.888 E212.88161
G1 X77.921 Y77.425 E212.94376
G1 X78.442 Y77.021 E213.00606
G0 F7200.00000 X78.779 Y77.218
G1 F1200.000 X79.336 Y76.911 E213.06616
G1 X79.928 Y76.676 E213.12635
G1 X80.545 Y76.517 E213.18656
G1 X81.177 Y76.436 E213.24678
G1 X81.501 Y76.426 E213.27741
G1 X141.499 Y76.426 E218.94722
G1 X142.135 Y76.466 E219.00744
G1 X142.760 Y76.585 E219.06756
G1 X143.366 Y76.782 E219.12778
G1 X143.942 Y77.053 E219.18794
G1 X144.480 Y77.394 E219.24813
G1 X144.971 Y77.800 E219.30834
G1 X145.407 Y78.264 E219.36851
G1 X145.782 Y78.779 E219.42871
G1 X146.089 Y79.336 E219.48881
